packages/ui-icons/svg/Solid/quiz-stats-high.svg

<svg viewBox="0 0 1920 1920" version="1.1" xmlns="http://www.w3.org/2000/svg">
    <path d="M1355.29412,1129.41176 L1242.35294,1129.41176 L1242.35294,757.496471 L661.157647,1338.80471 L581.195294,1258.84235 L1162.50353,677.647059 L790.588235,677.647059 L790.588235,564.705882 L1355.29412,564.705882 L1355.29412,1129.41176 Z M960,0 C430.644706,0 2.5243549e-29,430.644706 2.5243549e-29,960 C2.5243549e-29,1489.35529 430.644706,1920 960,1920 C1489.35529,1920 1920,1489.35529 1920,960 C1920,430.644706 1489.35529,0 960,0 L960,0 Z" stroke="none" stroke-width="1" fill-rule="evenodd"/>
</svg>

<svg viewBox="0 0 1920 1920" xmlns="http://www.w3.org/2000/svg">
    <path d="M1355.294 1129.412h-112.941V757.496l-581.195 581.309-79.963-79.963 581.309-581.195H790.588V564.706h564.706v564.706ZM960 0C430.645 0 0 430.645 0 960s430.645 960 960 960 960-430.645 960-960S1489.355 0 960 0Z" fill-rule="evenodd"/>
</svg>
